X:68
T:El Mandolin Del Puirtu
M:6/8
L:1/8
R:Jig
K:D major
|:a2g|fgf efe|d2A- Acd|e2A- Afg|agf age|f2f efg|f2B- Bed|cBA efe|1 d2a:|2 d3|!
|:e2d|cdc BcB|A2c cde|f2g f2e|dcB def|gag fgf|e2d efg|fgf efe|fgf efe:|

